packages/bezier-icons/icons/volume-up-filled.svg

<svg width="24" height="24" viewBox="0 0 24 24" fill="none" xmlns="http://www.w3.org/2000/svg">
<path fill-rule="evenodd" clip-rule="evenodd" d="M13.0138 1.99951H14.0138C14.5658 1.99951 15.0138 2.44751 15.0138 2.99951V20.9995C15.0138 21.5515 14.5658 21.9995 14.0138 21.9995H13.0138C12.7488 21.9995 12.4938 21.8945 12.3068 21.7065L7.59979 16.9995H3.01379C2.46179 16.9995 2.01379 16.5515 2.01379 15.9995V7.99951C2.01379 7.44751 2.46179 6.99951 3.01379 6.99951H7.59979L12.3068 2.29251C12.4938 2.10451 12.7488 1.99951 13.0138 1.99951ZM19.4069 6.41354C19.7974 6.02308 20.4359 6.02017 20.7804 6.45171C23.3617 9.68489 23.3617 14.3142 20.7804 17.5474C20.4359 17.9789 19.7974 17.976 19.4069 17.5855C19.0164 17.1951 19.0236 16.5656 19.3539 16.123C21.1719 13.6866 21.1719 10.3124 19.3539 7.87609C19.0236 7.43352 19.0164 6.80401 19.4069 6.41354ZM16.9904 8.83005C17.3809 8.43958 18.0235 8.43567 18.3369 8.89034C19.6222 10.7552 19.6222 13.2447 18.3369 15.109C18.0235 15.5636 17.3809 15.5596 16.9905 15.1691C16.6 14.7786 16.6167 14.1491 16.8804 13.6639C17.4424 12.6298 17.4424 11.3692 16.8803 10.3351C16.6166 9.84993 16.5999 9.22051 16.9904 8.83005Z" fill="#313234"/>
</svg>

<svg xmlns="http://www.w3.org/2000/svg" width="24" height="24" fill="none" viewBox="0 0 24 24"><path fill="#313234" fill-rule="evenodd" d="M13.014 2h1a1 1 0 0 1 1 1v18a1 1 0 0 1-1 1h-1a1 1 0 0 1-.707-.294L7.6 17H3.014a1 1 0 0 1-1-1V8a1 1 0 0 1 1-1H7.6l4.707-4.707A1 1 0 0 1 13.014 2m6.393 4.414c.39-.39 1.029-.394 1.373.038a8.92 8.92 0 0 1 0 11.095c-.344.432-.983.429-1.373.038-.39-.39-.383-1.02-.053-1.462a6.92 6.92 0 0 0 0-8.247c-.33-.442-.338-1.072.053-1.462M16.99 8.83c.39-.39 1.034-.394 1.347.06a5.5 5.5 0 0 1 0 6.219c-.314.455-.956.45-1.346.06s-.374-1.02-.11-1.505a3.5 3.5 0 0 0 0-3.329c-.264-.485-.281-1.114.11-1.505" clip-rule="evenodd"/></svg>
